Text/iconoteka_gif_b_s.svg

<svg id="Layer_1" data-name="Layer 1" xmlns="http://www.w3.org/2000/svg" viewBox="0 0 24 24"><title>iconoteka_gif_b_s</title><path d="M1,4V20H23V4ZM21,18H3V6H21ZM13,9h-1.5v6H13Zm3.38,4.11h2.05V11.73H16.37V10.38h2.5V9h-4v6h1.5Zm-9.08,2h.45A2.16,2.16,0,0,0,9.9,12.9V11.64H7.62v1.25h.83a.81.81,0,0,1-.74.86H7.32a.82.82,0,0,1-.75-.86V11.1a.82.82,0,0,1,.75-.86h.39a.77.77,0,0,1,.71.69l1.4-.39a2.16,2.16,0,0,0-2.08-1.6H7.29A2.16,2.16,0,0,0,5.13,11.1v1.8A2.16,2.16,0,0,0,7.29,15.06Z"/></svg>

<?xml version="1.0" encoding="utf-8"?>
<!-- Generator: Adobe Illustrator 22.1.0, SVG Export Plug-In . SVG Version: 6.00 Build 0)  -->
<svg version="1.1" id="Layer_1" xmlns="http://www.w3.org/2000/svg" xmlns:xlink="http://www.w3.org/1999/xlink" x="0px" y="0px"
	 viewBox="0 0 24 24" style="enable-background:new 0 0 24 24;" xml:space="preserve">
<title>iconoteka_gif_b_s</title>
<path d="M1,4v16h22V4H1z M21,18H3V6h18V18z M13,9h-1.5v6H13V9z M16.4,13.1h2v-1.4h-2.1v-1.3h2.5V9h-4v6h1.5L16.4,13.1z M7.3,15.1
	h0.4c1.2,0,2.2-1,2.2-2.2c0,0,0,0,0,0v-1.3H7.6v1.2h0.8c0,0.4-0.3,0.8-0.7,0.9H7.3c-0.4,0-0.8-0.4-0.8-0.9v-1.8
	c0-0.4,0.3-0.8,0.8-0.9h0.4c0.4,0,0.7,0.3,0.7,0.7l1.4-0.4C9.6,9.6,8.7,8.9,7.7,8.9H7.3c-1.2,0-2.2,1-2.2,2.2v0v1.8
	C5.1,14.1,6.1,15.1,7.3,15.1L7.3,15.1z"/>
</svg>
